assets/img/braze_icons/bar-chart-square-down.svg

<svg fill="none" height="24" viewBox="0 0 24 24" width="24" xmlns="http://www.w3.org/2000/svg"><g fill="#801ed7"><path d="m6 2c0-.55228-.44772-1-1-1s-1 .44772-1 1v3.58579l-1.29289-1.2929c-.39053-.39052-1.02369-.39052-1.41422 0-.390521.39053-.390521 1.02369 0 1.41422l3 3c.18754.18753.44189.29289.70711.29289s.51957-.10536.70711-.29289l3-3c.39052-.39053.39052-1.02369 0-1.41422-.39053-.39052-1.02369-.39052-1.41422 0l-1.29289 1.2929z"/><path clip-rule="evenodd" d="m10.1213 7.12132-2.99948 2.99948c-.56261.5626-1.32617.8792-2.12182.8792-.04973 0-.09933-.0012-.14876-.0037-.74149-.0368-1.44511-.3475-1.97256-.875-.02084-.0208-.03126-.0312-.0376-.0371-.31362-.29264-.82591-.0805-.84078.3482-.0003.0087-.0003.0234-.0003.0529v7.3533c-.00002.5271-.00003.9819.03057 1.3564.0323.3954.10362.7886.29641 1.167.28762.5645.74657 1.0234 1.31105 1.311.37838.1928.7716.2641 1.16695.2964.37456.0306.82932.0306 1.35646.0306h7.67716c.5271 0 4.9819 0 5.3564-.0306.3954-.0323.7886-.1036 1.167-.2964.5645-.2876 1.0234-.7465 1.311-1.311.1928-.3784.2641-.7716.2964-1.167.0306-.3745.0306-.8293.0306-1.3564v-11.67716c0-.52714 0-.9819-.0306-1.35646-.0323-.39535-.1036-.78857-.2964-1.16695-.2876-.56448-.7465-1.02343-1.311-1.31105-.3784-.19279-.7716-.26411-1.167-.29641-.3745-.0306-.8293-.03059-1.3564-.03057h-8.08428c-.14046 0-.25432.11386-.25432.25432 0 .09081.0489.17402.12519.22328.17574.11347.34222.24717.49611.40108 1.1716 1.17157 1.1716 3.07107 0 4.24264zm6.8787-1.12132c.5523 0 1 .44772 1 1v10c0 .5523-.4477 1-1 1s-1-.4477-1-1v-10c0-.55228.4477-1 1-1zm-3 5c0-.5523-.4477-1-1-1s-1 .4477-1 1v6c0 .5523.4477 1 1 1s1-.4477 1-1zm-4 2c0-.5523-.44771-1-1-1-.55228 0-1 .4477-1 1v4c0 .5523.44772 1 1 1 .55229 0 1-.4477 1-1z" fill-rule="evenodd"/></g></svg>

<svg width="24" height="24" viewBox="0 0 24 24" fill="none" xmlns="http://www.w3.org/2000/svg">
<path d="M6 2C6 1.44772 5.55228 1 5 1C4.44772 1 4 1.44772 4 2V5.58579L2.70711 4.29289C2.31658 3.90237 1.68342 3.90237 1.29289 4.29289C0.902369 4.68342 0.902369 5.31658 1.29289 5.70711L4.29289 8.70711C4.48043 8.89464 4.73478 9 5 9C5.26522 9 5.51957 8.89464 5.70711 8.70711L8.70711 5.70711C9.09763 5.31658 9.09763 4.68342 8.70711 4.29289C8.31658 3.90237 7.68342 3.90237 7.29289 4.29289L6 5.58579V2Z" fill="#801ED7"/>
<path fill-rule="evenodd" clip-rule="evenodd" d="M10.1213 7.12132L7.12182 10.1208C6.55921 10.6834 5.79565 11 5 11C4.95027 11 4.90067 10.9988 4.85124 10.9963C4.10975 10.9595 3.40613 10.6488 2.87868 10.1213C2.85784 10.1005 2.84742 10.0901 2.84108 10.0842C2.52746 9.79156 2.01517 10.0037 2.0003 10.4324C2 10.4411 2 10.4558 2 10.4853V17.8386C1.99998 18.3657 1.99997 18.8205 2.03057 19.195C2.06287 19.5904 2.13419 19.9836 2.32698 20.362C2.6146 20.9265 3.07355 21.3854 3.63803 21.673C4.01641 21.8658 4.40963 21.9371 4.80498 21.9694C5.17954 22 5.6343 22 6.16144 22H13.8386C14.3657 22 18.8205 22 19.195 21.9694C19.5904 21.9371 19.9836 21.8658 20.362 21.673C20.9265 21.3854 21.3854 20.9265 21.673 20.362C21.8658 19.9836 21.9371 19.5904 21.9694 19.195C22 18.8205 22 18.3657 22 17.8386V6.16144C22 5.6343 22 5.17954 21.9694 4.80498C21.9371 4.40963 21.8658 4.01641 21.673 3.63803C21.3854 3.07355 20.9265 2.6146 20.362 2.32698C19.9836 2.13419 19.5904 2.06287 19.195 2.03057C18.8205 1.99997 18.3657 1.99998 17.8386 2H9.75432C9.61386 2 9.5 2.11386 9.5 2.25432C9.5 2.34513 9.5489 2.42834 9.62519 2.4776C9.80093 2.59107 9.96741 2.72477 10.1213 2.87868C11.2929 4.05025 11.2929 5.94975 10.1213 7.12132ZM17 6C17.5523 6 18 6.44772 18 7V17C18 17.5523 17.5523 18 17 18C16.4477 18 16 17.5523 16 17V7C16 6.44772 16.4477 6 17 6ZM14 11C14 10.4477 13.5523 10 13 10C12.4477 10 12 10.4477 12 11V17C12 17.5523 12.4477 18 13 18C13.5523 18 14 17.5523 14 17V11ZM10 13C10 12.4477 9.55229 12 9 12C8.44772 12 8 12.4477 8 13V17C8 17.5523 8.44772 18 9 18C9.55229 18 10 17.5523 10 17V13Z" fill="#801ED7"/>
</svg>
